Target/Image/Dark/PlayForm.svg

<svg width="292" height="644" viewBox="0 0 292 644" fill="none" xmlns="http://www.w3.org/2000/svg">
    <path
        d="M111.818 535.325L142.627 480.738L165.09 539.255C175.015 565.113 147.079 589.173 122.979 575.523C108.807 567.496 103.813 549.508 111.818 535.325ZM184.628 203.314L165.083 247.214L115.441 351.317L89.6825 284.214L57.3485 199.981C36.0636 144.532 90.2132 89.9308 145.837 110.754C183.017 124.672 200.776 167.047 184.628 203.314Z"
        stroke="#EAEAEA" stroke-opacity="0.21" stroke-width="21" />
</svg>

<svg xmlns="http://www.w3.org/2000/svg" width="292" height="644" fill="none"><path stroke="#EAEAEA" stroke-opacity=".21" stroke-width="21" d="m111.818 535.325 30.809-54.587 22.463 58.517c9.925 25.858-18.011 49.918-42.111 36.268-14.172-8.027-19.166-26.015-11.161-40.198Zm72.81-332.011-19.545 43.9-49.642 104.103-25.758-67.103-32.335-84.233c-21.284-55.449 32.865-110.05 88.489-89.227 37.18 13.918 54.939 56.293 38.791 92.56Z"/></svg>
